src/scalable/places-normal/default-folder-devices.svg

<svg width="64" height="64" version="1.1" viewBox="0 0 64 64" xmlns="http://www.w3.org/2000/svg">
 <defs>
  <style id="current-color-scheme" type="text/css">.ColorScheme-Text {
        color:#333333;
      }
      .ColorScheme-Highlight {
        color:#5294e2;
      }</style>
  <linearGradient id="linearGradient892" x1="-197.72" x2="-197.72" y1="263.86" y2="273.76" gradientTransform="rotate(-45,-337.55,-145.8)" gradientUnits="userSpaceOnUse">
   <stop offset="0"/>
   <stop stop-opacity="0" offset="1"/>
  </linearGradient>
 </defs>
 <g transform="scale(3.7796)">
  <path class="ColorScheme-Highlight" transform="scale(.26458)" d="m27.002 8.9844-14 0.00391c-1.1097 0-1.4926 1.0128-2.002 1.998v0.01367h-1c-2.216 0-4 1.784-4 4v5c-2.216 0-4 1.784-4 4v28c0 2.216 1.784 4 4 4h52c2.216 0 4-1.784 4-4v-32c0-2.216-1.784-4-4-4v-1c0-2.216-1.784-4-4-4h-16.859c-0.04729-0.0032-0.09249-0.01387-0.14062-0.01367h-7.9961c-0.58584-0.94113-0.8907-2.002-2.002-2.002z" fill="currentColor"/>
  <path d="m7.1441 2.3771-3.7041 0.00103c-0.2936 0-0.39492 0.26798-0.52967 0.52864v0.00362h-0.26458c-0.58631 0-1.0583 0.472-1.0583 1.0583v1.3229h6.6145l0.79373-1.0583h6.3499v-0.26458c0-0.58631-0.472-1.0583-1.0583-1.0583l-6.6134-0.00362c-0.155-0.249-0.23566-0.52967-0.52967-0.52967z" fill="#000000" opacity=".2"/>
  <path transform="scale(.26458)" d="m11.016 13.984c-1.1166 0-2.0156 0.89903-2.0156 2.0156v4h22l3-4h21c0-1.1166-0.89903-2.0156-2.0156-2.0156h-41.969z" fill="#ffffff"/>
  <rect x="3.704" y="2.64" width="3.175" height=".529" rx=".2645" ry=".2645" opacity=".25"/>
  <path transform="scale(.26458)" d="m62 40-16 16h12c2.216 0 4-1.784 4-4z" fill="url(#linearGradient892)" opacity=".2" stroke-linecap="round" stroke-linejoin="round" stroke-width="2"/>
 </g>
 <g transform="translate(20,25.194)" fill="#ffffff">
  <path d="m0 0h24v24h-24z" fill="none"/>
  <path d="m4 6h18v-2h-18c-1.1 0-2 0.9-2 2v11h-2v3h14v-3h-10zm19 2h-6c-0.55 0-1 0.45-1 1v10c0 0.55 0.45 1 1 1h6c0.55 0 1-0.45 1-1v-10c0-0.55-0.45-1-1-1zm-1 9h-4v-7h4z"/>
 </g>
</svg>

<?xml version="1.0" encoding="UTF-8" standalone="no"?>
<svg
   width="64"
   height="64"
   version="1.1"
   viewBox="0 0 64 64"
   id="svg22"
   sodipodi:docname="default-folder-devices.svg"
   inkscape:version="1.1.1 (3bf5ae0d25, 2021-09-20)"
   xmlns:inkscape="http://www.inkscape.org/namespaces/inkscape"
   xmlns:sodipodi="http://sodipodi.sourceforge.net/DTD/sodipodi-0.dtd"
   xmlns="http://www.w3.org/2000/svg"
   xmlns:svg="http://www.w3.org/2000/svg">
  <sodipodi:namedview
     id="namedview24"
     pagecolor="#ffffff"
     bordercolor="#666666"
     borderopacity="1.0"
     inkscape:pageshadow="2"
     inkscape:pageopacity="0.0"
     inkscape:pagecheckerboard="0"
     showgrid="false"
     inkscape:zoom="6.15625"
     inkscape:cx="32"
     inkscape:cy="32"
     inkscape:window-width="1366"
     inkscape:window-height="688"
     inkscape:window-x="0"
     inkscape:window-y="0"
     inkscape:window-maximized="1"
     inkscape:current-layer="svg22" />
  <defs
     id="defs8">
    <style
       id="current-color-scheme"
       type="text/css">.ColorScheme-Text {
        color:#333333;
      }
      .ColorScheme-Highlight {
        color:#5294e2;
      }</style>
    <linearGradient
       id="linearGradient892"
       x1="-197.72"
       x2="-197.72"
       y1="263.86"
       y2="273.76"
       gradientTransform="rotate(-45,-337.55,-145.8)"
       gradientUnits="userSpaceOnUse">
      <stop
         offset="0"
         id="stop3" />
      <stop
         stop-opacity="0"
         offset="1"
         id="stop5" />
    </linearGradient>
  </defs>
  <g
     transform="scale(3.7796)"
     id="g20">
    <path
       class="ColorScheme-Highlight"
       transform="scale(.26458)"
       d="m27.002 8.9844-14 0.00391c-1.1097 0-1.4926 1.0128-2.002 1.998v0.01367h-1c-2.216 0-4 1.784-4 4v5c-2.216 0-4 1.784-4 4v28c0 2.216 1.784 4 4 4h52c2.216 0 4-1.784 4-4v-32c0-2.216-1.784-4-4-4v-1c0-2.216-1.784-4-4-4h-16.859c-0.04729-0.0032-0.09249-0.01387-0.14062-0.01367h-7.9961c-0.58584-0.94113-0.8907-2.002-2.002-2.002z"
       fill="currentColor"
       id="path10" />
    <path
       d="m7.1441 2.3771-3.7041 0.00103c-0.2936 0-0.39492 0.26798-0.52967 0.52864v0.00362h-0.26458c-0.58631 0-1.0583 0.472-1.0583 1.0583v1.3229h6.6145l0.79373-1.0583h6.3499v-0.26458c0-0.58631-0.472-1.0583-1.0583-1.0583l-6.6134-0.00362c-0.155-0.249-0.23566-0.52967-0.52967-0.52967z"
       fill="#000000"
       opacity=".2"
       id="path12" />
    <path
       transform="scale(.26458)"
       d="m11.016 13.984c-1.1166 0-2.0156 0.89903-2.0156 2.0156v4h22l3-4h21c0-1.1166-0.89903-2.0156-2.0156-2.0156h-41.969z"
       fill="#ffffff"
       id="path14" />
    <rect
       x="3.704"
       y="2.64"
       width="3.175"
       height=".529"
       rx=".2645"
       ry=".2645"
       opacity=".25"
       id="rect16" />
    <path
       transform="scale(.26458)"
       d="m62 40-16 16h12c2.216 0 4-1.784 4-4z"
       fill="url(#linearGradient892)"
       opacity=".2"
       stroke-linecap="round"
       stroke-linejoin="round"
       stroke-width="2"
       id="path18" />
  </g>
  <g
     style="fill:#ffffff"
     id="g28"
     transform="translate(20,25.194)">
    <path
       d="M 0,0 H 24 V 24 H 0 Z"
       fill="none"
       id="path16" />
    <path
       d="M 4,6 H 22 V 4 H 4 C 2.9,4 2,4.9 2,6 V 17 H 0 v 3 H 14 V 17 H 4 Z m 19,2 h -6 c -0.55,0 -1,0.45 -1,1 v 10 c 0,0.55 0.45,1 1,1 h 6 c 0.55,0 1,-0.45 1,-1 V 9 C 24,8.45 23.55,8 23,8 Z m -1,9 h -4 v -7 h 4 z"
       id="path18-3" />
  </g>
</svg>
